symbols/web/screenshot_monitor/materialsymbolsoutlined/screenshot_monitor_wght300fill1_40px.svg

<svg xmlns="http://www.w3.org/2000/svg" height="40" width="40"><path d="M8.583 16.25h1.584v-4.417h4.416V10.25h-6Zm16.834 10.167h6v-6h-1.584v4.416h-4.416Zm-11.042 7.75v-3.334H6.792q-1.084 0-1.854-.771-.771-.77-.771-1.854V8.458q0-1.083.771-1.854.77-.771 1.854-.771h26.416q1.084 0 1.854.771.771.771.771 1.854v19.75q0 1.084-.771 1.854-.77.771-1.854.771h-7.583v3.334Z"/></svg>

<svg xmlns="http://www.w3.org/2000/svg" height="40" width="40"><path d="M8.583 16.25H10.167V11.833H14.583V10.25H8.583ZM25.417 26.417H31.417V20.417H29.833V24.833H25.417ZM14.375 34.167V30.833H6.792Q5.708 30.833 4.938 30.062Q4.167 29.292 4.167 28.208V8.458Q4.167 7.375 4.938 6.604Q5.708 5.833 6.792 5.833H33.208Q34.292 5.833 35.062 6.604Q35.833 7.375 35.833 8.458V28.208Q35.833 29.292 35.062 30.062Q34.292 30.833 33.208 30.833H25.625V34.167Z"/></svg>
